X:1
T:Down the River
M:6/8
L:1/8
K:Bb
 F| FFF d2 c/2c/2| BBB F2 F/2F/2| G2 G AAG| F3- F2 z| FFF d2- c| BBB F2 F|\
 G2 G A2 A/2A/2| B3- B2 z| B2 B BBB| G2 GG G2| A2 A AAA| B3- B2 z|\
 B2 B BBB| G2 GG G2| A2 A A2 A| B3- B2||
